X:071
T:Twin Sisters
T:Upton on Severn Stick Dance
M:6/8
K:G
d | dBB BAG | AGA BGE | DGG GBd | edB A2d | 
dBB BAG | AGA BGE | DGG G2B | AGA G2 || 
G | GBd g2d | edc BAG | GBd g2d | edB A2G | 
GBd g2d | edc Bcd | ege dBG | AGA G2 :| 

